X:1
T:Kenosis, 66.66.86.86
T:Kenosis, 66.66.86.86
T:Philip Paul Bliss, 1873
T:Public Domain Courtesy of the Cyber Hymnal™
C:Philip Paul Bliss, 1873
Z:Public Domain
Z:Courtesy of the Cyber Hymnal™
%%score ( 1 2 ) ( 3 4 )
L:1/8
Q:1/4=113
M:6/8
K:C
V:1 treble 
V:2 treble 
V:3 bass 
V:4 bass 
V:1
 [EG] | [EG]2 [EG] [CE]2 [EG] | ([FA]3 [Ac][GB])[FA] | [EG]2 [EG] [DF]2 [B,G] | [CE]3- [CE]2 [EG] | %5
 [EG]2 [EG] [CE]2 [EG] | [FA]3 ([Ac][GB])[FA] | [EG]2 G (BA)[FB] | [Ec]3- [Ec]2 |: [Ec] | %10
 [Fd]2 [Fd] ([Fd][Ec])[DB] | [Ec]2 [Ec] [EG]2 [Ec] | [FB]2 [FB] (BA)[FB] | [Ec]3- [Ec]2 :| %14
V:2
 x | x6 | x6 | x6 | x6 | x6 | x6 | x2 G F2 x | x5 |: x | x6 | x6 | x3 F2 x | x5 :| %14
V:3
 [C,C] | [C,C]2 [C,C] [C,G,]2 [C,C] | ([F,C]3 [F,C]2) [F,C] | [G,C]2 [G,C] [G,B,]2 G, | %4
 [C,G,]3- [C,G,]2 [C,C] | [C,C]2 [C,C] [C,G,]2 [C,C] | [F,C]3- [F,C]2 [F,C] | %7
 [G,C]2 [G,E] [G,D]2 [G,D] | [C,C]3- [C,C]2 |: [C,C] | [G,B,]2 [G,B,] (B,C)[G,D] | %11
 [C,C]2 [C,C] [C,C]2 [C,C] | [G,D]2 [G,D] [G,D]2 G, | [C,G,]3- [C,G,]2 :| %14
V:4
 x | x6 | x6 | x5 G, | x6 | x6 | x6 | x6 | x5 |: x | x3 G,2 x | x6 | x5 G, | x5 :| %14

